novawallet/Assets.xcassets/iconSwap.imageset/iconSwap.svg

<svg fill="none" height="32" viewBox="0 0 32 32" width="32" xmlns="http://www.w3.org/2000/svg"><g fill="#ffffff"><path d="m8.00714 10.7701c-.4703 0-.85883-.352-.91579-.80675l-.00719-.1245c.00409-.46659.35463-.85092.80672-.90755l.12512-.00722 13.7687-.00001-3.3527-3.34803c-.3306-.33023-.3585-.84928-.0831-1.21099l.0887-.1006c.3305-.32467.8453-.3505 1.2047-.07688l.1011.08919 4.9161 4.91087c.3305.3302.3585.84917.0832 1.21087l-.0892.1011-4.9161 4.9226c-.3602.3607-.9446.361-1.3053.0008-.3306-.3302-.3586-.8492-.0833-1.211l.0892-.1011 3.3367-3.3408z"/><path d="m13.5832 26.424c.3305.3302.3584.8493.083 1.211l-.0887.1006c-.3306.3246-.8453.3504-1.2047.0768l-.1011-.0892-4.91609-4.9114c-.33056-.3303-.35844-.8493-.08305-1.211l.08918-.1011 4.91606-4.9207c.3603-.3607.9447-.3609 1.3054-.0006.3305.3302.3584.8492.083 1.2109l-.0892.1012-3.3366 3.3406h13.7628c.4703 0 .8588.352.9158.8068l.0072.1245c-.0041.4666-.3547.8509-.8068.9075l-.1251.0073-13.7597-.0001z"/></g></svg>

<svg width="32" height="32" viewBox="0 0 32 32" fill="none" xmlns="http://www.w3.org/2000/svg">
<path d="M8.00714 10.7701C7.53684 10.7701 7.14831 10.4181 7.09135 9.96335L7.08416 9.83885C7.08825 9.37226 7.43879 8.98793 7.89088 8.9313L8.016 8.92408L21.7847 8.92407L18.432 5.57604C18.1014 5.24581 18.0735 4.72676 18.3489 4.36505L18.4376 4.26445C18.7681 3.93978 19.2829 3.91395 19.6423 4.18757L19.7434 4.27676L24.6595 9.18763C24.99 9.51783 25.018 10.0368 24.7427 10.3985L24.6535 10.4996L19.7374 15.4222C19.3772 15.7829 18.7928 15.7832 18.4321 15.423C18.1015 15.0928 18.0735 14.5738 18.3488 14.212L18.438 14.1109L21.7747 10.7701L8.00714 10.7701Z" fill="white" fill-opacity="0.32"/>
<path d="M13.5832 26.424C13.9137 26.7542 13.9416 27.2733 13.6662 27.635L13.5775 27.7356C13.2469 28.0602 12.7322 28.086 12.3728 27.8124L12.2717 27.7232L7.35561 22.8118C7.02505 22.4815 6.99717 21.9625 7.27256 21.6008L7.36174 21.4997L12.2778 16.579C12.6381 16.2183 13.2225 16.2181 13.5832 16.5784C13.9137 16.9086 13.9416 17.4276 13.6662 17.7893L13.577 17.8905L10.2404 21.2311L24.0032 21.2311C24.4735 21.2311 24.862 21.5831 24.919 22.0379L24.9262 22.1624C24.9221 22.629 24.5715 23.0133 24.1194 23.0699L23.9943 23.0772L10.2346 23.0771L13.5832 26.424Z" fill="white" fill-opacity="0.32"/>
</svg>
